Origami/64x64/apps/gnome-commander.svg

<svg width="64" height="64" version="1" xmlns="http://www.w3.org/2000/svg">
 <path d="m4 52v2c0 1.662 1.338 3 3 3h50c1.662 0 3-1.338 3-3v-2c0 1.662-1.338 3-3 3h-50c-1.662 0-3-1.338-3-3z" style="opacity:.2"/>
 <path d="m4 16v37c0 1.662 1.338 3 3 3h50c1.662 0 3-1.338 3-3v-37h-56z" style="fill:#d8d8d8"/>
 <path d="m60 16v-5c0-1.662-1.338-3-3-3h-50c-1.662 0-3 1.338-3 3v5z" style="fill:#636e73"/>
 <path d="m60 53v-37h-28v40h25c1.662 0 3-1.338 3-3z" style="opacity:.15"/>
 <path d="m7 8c-1.662 0-3 1.338-3 3v1c0-1.662 1.338-3 3-3h50c1.662 0 3 1.338 3 3v-1c0-1.662-1.338-3-3-3h-50z" style="fill:#ffffff;opacity:.1"/>
 <g transform="scale(2)" style="fill:#636e73">
  <path d="m6 11v0.5h1v1.49967h-3v-2h2z"/>
  <path d="m6 15v0.5h1v1.49967h-3v-2h2z"/>
  <path d="m6 19v0.5h1v1.49967h-3v-2h2z"/>
 </g>
 <g transform="matrix(2,0,0,2,28,0)" style="fill:#636e73;opacity:.8">
  <path d="m6 11v0.5h1v1.49967h-3v-2h2z"/>
  <path d="m6 15v0.5h1v1.49967h-3v-2h2z"/>
  <path d="m6 19v0.5h1v1.49967h-3v-2h2z"/>
 </g>
</svg>

<svg xmlns="http://www.w3.org/2000/svg" width="64" height="64" version="1">
 <path style="opacity:0.2" d="m 4,52 0,2 c 0,1.662 1.338,3 3,3 l 50,0 c 1.662,0 3,-1.338 3,-3 l 0,-2 c 0,1.662 -1.338,3 -3,3 L 7,55 C 5.338,55 4,53.662 4,52 Z"/>
 <path style="fill:#d8d8d8" d="M 4 16 L 4 53 C 4 54.662 5.338 56 7 56 L 57 56 C 58.662 56 60 54.662 60 53 L 60 16 L 4 16 z"/>
 <path style="fill:#636e73" d="m 60,16 0,-5 C 60,9.338 58.662,8 57,8 L 7,8 C 5.338,8 4,9.338 4,11 l 0,5 z"/>
 <path style="opacity:0.15" d="m 60,53 0,-37 -28,0 0,40 25,0 c 1.662,0 3,-1.338 3,-3 z"/>
 <path style="opacity:0.1;fill:#ffffff" d="M 7 8 C 5.338 8 4 9.338 4 11 L 4 12 C 4 10.338 5.338 9 7 9 L 57 9 C 58.662 9 60 10.338 60 12 L 60 11 C 60 9.338 58.662 8 57 8 L 7 8 z"/>
 <g style="fill:#636e73" transform="scale(2,2)">
  <path d="m 6,11 0,0.5 1,0 0,1.49967 -3,0 0,-2 2,0 z"/>
  <path d="m 6,15 0,0.5 1,0 0,1.49967 -3,0 0,-2 2,0 z"/>
  <path d="m 6,19 0,0.5 1,0 0,1.49967 -3,0 0,-2 2,0 z"/>
 </g>
 <g style="fill:#636e73;opacity:0.8" transform="matrix(2,0,0,2,28,0)">
  <path d="m 6,11 0,0.5 1,0 0,1.49967 -3,0 0,-2 2,0 z"/>
  <path d="m 6,15 0,0.5 1,0 0,1.49967 -3,0 0,-2 2,0 z"/>
  <path d="m 6,19 0,0.5 1,0 0,1.49967 -3,0 0,-2 2,0 z"/>
 </g>
</svg>
